site/components/case-study/SVG/tesco-figure.svg

<?xml version="1.0" encoding="UTF-8" standalone="no"?>
<svg width="392px" height="150px" viewBox="0 0 392 150" version="1.1" xmlns="http://www.w3.org/2000/svg" xmlns:xlink="http://www.w3.org/1999/xlink">
    <!-- Generator: sketchtool 40.1 (33804) - http://www.bohemiancoding.com/sketch -->
    <title>BBDCAAB0-7457-4AE5-AD2A-B4517BAE9B7F</title>
    <desc>Created with sketchtool.</desc>
    <defs></defs>
    <g id="Symbols" stroke="none" stroke-width="1" fill="none" fill-rule="evenodd">
        <g id="Tesco-fact" transform="translate(-89.000000, -60.000000)" fill="#F8F8F8">
            <g id="54%">
                <g transform="translate(89.000000, 60.000000)">
                    <path d="M28.4938623,35.254491 C38.1495509,38.8473054 49.1525449,41.5419162 64.6465569,41.5419162 C84.8561377,41.5419162 101.697455,33.008982 112.251347,11.9011976 L105.51482,0 C93.6136228,5.83832335 84.182485,8.53293413 67.5657186,8.53293413 C53.1944611,8.53293413 33.433982,6.28742515 18.6136228,1.34730539 L12.1016467,7.18562874 L6.93697605,82.1856287 L23.1046407,87.1257485 C29.8411677,81.7365269 39.4968563,78.3682635 46.2333832,78.3682635 C61.9519461,78.3682635 70.2603293,86.002994 70.2603293,105.314371 C70.2603293,123.053892 61.5028443,133.158683 46.4579341,133.158683 C40.8441617,133.158683 34.7812874,131.811377 31.413024,130.01497 C36.8022455,126.646707 40.170509,120.808383 40.170509,113.847305 C40.170509,105.763473 34.1076347,97.4550898 21.7573353,97.4550898 C8.50883234,97.4550898 0.425,106.661677 0.425,118.787425 C0.425,138.547904 21.9818862,150 55.2154192,150 C94.9609281,150 114.272305,126.871257 114.272305,100.823353 C114.272305,77.9191617 100.125599,57.4850299 62.176497,57.4850299 C49.1525449,57.4850299 36.1285928,61.5269461 25.7992515,69.6107784 L28.4938623,35.254491 Z M192.416018,85.1047904 L147.281287,85.1047904 L191.068713,28.742515 L192.416018,28.742515 L192.416018,85.1047904 Z M229.466916,125.299401 L229.466916,106.212575 L255.51482,106.212575 L255.51482,85.1047904 L229.466916,85.1047904 L229.466916,1.57185629 L190.619611,1.57185629 L123.478892,85.3293413 L123.478892,106.212575 L192.416018,106.212575 L192.416018,125.299401 L168.838174,125.299401 L168.838174,146.407186 L249.901048,146.407186 L249.901048,125.299401 L229.466916,125.299401 Z"></path>
                    <path d="M297.6,105.2 C313.8,105.2 327.3,86.9 327.3,69.05 L327.3,68.6 C328.65,68.75 330.3,68.75 332.1,68.75 C338.55,68.75 344.4,66.8 349.95,62.3 L350.4,62.75 L291.9,148.7 L307.95,148.7 L374.25,47 L361.8,47 C354.15,53.9 346.35,57.5 336.45,57.5 C330.3,57.5 325.65,56.6 321.9,54.95 C318.45,51.5 313.2,49.55 306.75,49.55 C290.7,49.55 276,66.5 276,84.05 C276,97.25 285.45,105.2 297.6,105.2 L297.6,105.2 Z M361.35,146.9 C377.55,146.9 391.05,128.6 391.05,110.75 C391.05,98.75 383.25,91.25 370.5,91.25 C354.45,91.25 339.75,108.2 339.75,125.75 C339.75,138.95 349.2,146.9 361.35,146.9 L361.35,146.9 Z M364.8,137.6 C360.6,137.6 357.9,134.45 357.9,128.6 C357.9,117.8 365.55,101.3 374.25,101.3 C378.45,101.3 381,104.45 381,109.7 C381,121.1 373.5,137.6 364.8,137.6 L364.8,137.6 Z M301.05,95.9 C296.85,95.9 294.15,92.75 294.15,86.9 C294.15,77.3 300.3,63.05 307.8,60.2 C310.35,62.75 313.35,65 317.1,66.5 C317.25,66.95 317.25,67.55 317.25,68 C317.25,79.4 309.75,95.9 301.05,95.9 L301.05,95.9 Z" id="%-copy-2"></path>
                </g>
            </g>
        </g>
    </g>
</svg>

<svg width="392" height="150" viewBox="0 0 392 150" xmlns="http://www.w3.org/2000/svg"><g fill="#F8F8F8" fill-rule="evenodd"><path d="M28.494 35.254c9.656 3.593 20.659 6.288 36.153 6.288 20.21 0 37.05-8.533 47.604-29.64L105.515 0c-11.901 5.838-21.333 8.533-37.95 8.533-14.37 0-34.131-2.246-48.951-7.186l-6.512 5.839-5.165 75 16.168 4.94c6.736-5.39 16.392-8.758 23.128-8.758 15.719 0 24.027 7.635 24.027 26.946 0 17.74-8.757 27.845-23.802 27.845-5.614 0-11.677-1.348-15.045-3.144 5.39-3.368 8.758-9.207 8.758-16.168 0-8.084-6.063-16.392-18.414-16.392-13.248 0-21.332 9.207-21.332 21.332 0 19.76 21.557 31.213 54.79 31.213 39.746 0 59.057-23.129 59.057-49.177 0-22.904-14.146-43.338-52.096-43.338-13.023 0-26.047 4.042-36.377 12.126l2.695-34.357zm163.922 49.85h-45.135l43.788-56.361h1.347v56.362zm37.05 40.195v-19.086h26.049V85.105h-26.048V1.572H190.62l-67.141 83.757v20.884h68.937v19.086h-23.578v21.108h81.063V125.3h-20.434zM297.6 105.2c16.2 0 29.7-18.3 29.7-36.15v-.45c1.35.15 3 .15 4.8.15 6.45 0 12.3-1.95 17.85-6.45l.45.45-58.5 85.95h16.05L374.25 47H361.8c-7.65 6.9-15.45 10.5-25.35 10.5-6.15 0-10.8-.9-14.55-2.55-3.45-3.45-8.7-5.4-15.15-5.4-16.05 0-30.75 16.95-30.75 34.5 0 13.2 9.45 21.15 21.6 21.15zm63.75 41.7c16.2 0 29.7-18.3 29.7-36.15 0-12-7.8-19.5-20.55-19.5-16.05 0-30.75 16.95-30.75 34.5 0 13.2 9.45 21.15 21.6 21.15zm3.45-9.3c-4.2 0-6.9-3.15-6.9-9 0-10.8 7.65-27.3 16.35-27.3 4.2 0 6.75 3.15 6.75 8.4 0 11.4-7.5 27.9-16.2 27.9zm-63.75-41.7c-4.2 0-6.9-3.15-6.9-9 0-9.6 6.15-23.85 13.65-26.7 2.55 2.55 5.55 4.8 9.3 6.3.15.45.15 1.05.15 1.5 0 11.4-7.5 27.9-16.2 27.9z"/></g></svg>
